www/assets/icons/checkroom.svg

<svg width="24" height="24" viewBox="0 0 24 24" xmlns="http://www.w3.org/2000/svg" fill='currentColor'><path d="M21.6 18.2015L13 11.7515V10.8415C14.65 10.3515 15.8 8.6715 15.43 6.7915C15.17 5.4815 14.13 4.3915 12.82 4.0915C10.54 3.5715 8.50002 5.3015 8.50002 7.5015H10.5C10.5 6.6715 11.17 6.0015 12 6.0015C12.83 6.0015 13.5 6.6715 13.5 7.5015C13.5 8.3415 12.81 9.0215 11.97 9.0015C11.43 8.9915 11 9.4515 11 9.9915V11.7515L2.40002 18.2015C1.63002 18.7815 2.04002 20.0015 3.00002 20.0015H21C21.96 20.0015 22.37 18.7815 21.6 18.2015ZM6.00002 18.0015L12 13.5015L18 18.0015H6.00002Z"/></svg>

<svg xmlns="http://www.w3.org/2000/svg" width="24" height="24" viewBox="0 0 24 24" fill='currentColor'><path d="m21.6 18.202-8.6-6.45v-.91a3.496 3.496 0 0 0-.18-6.75 3.51 3.51 0 0 0-4.32 3.41h2c0-.83.67-1.5 1.5-1.5s1.5.67 1.5 1.5c0 .84-.69 1.52-1.53 1.5-.54-.01-.97.45-.97.99v1.76l-8.6 6.45c-.77.58-.36 1.8.6 1.8h18c.96 0 1.37-1.22.6-1.8m-15.6-.2 6-4.5 6 4.5z"/></svg>
